X: 15904
T: Grand Canal, The
R: reel
M: 4/4
K: Adorian
ABcA GE~E2|GEAE GE~E2|A2cA GE~E2|cdec dcAG|
(3A^AB cA GE~E2|GEAE GE~E2|A2cA GE~E2|cdec d2 ^cd||
eaag ed~d2|^cdef gfed|eaag ed~d2|ed=cA dcAG|
Aaag ed~d2|^cdef gfed|ef (3gfe ~d2 ^cd|ed=cA dcAG||

